X:1
T:Title
%%score 1 ( 2 3 )
L:1/8
Q:1/4=68
M:6/8
K:C
V:1 treble nm="Strings 1, Treble"
V:2 bass nm="Strings 1, Bass"
V:3 bass 
V:1
 G>EE EFG | A3 F3 | F>DD DEF | G3 E3 | E>CC CDE | F3 D3 | D>[K:bass]B,B, B,CD | E3 F3 | G>EE EFG | %9
w: O pen~ the~ door~ for~ the~|chil dren,~|Ten der ly~ ga ther~ them~|in,~ *|In~ from~ the~ high ways~ and~|hedg es,~|In~ from~ the~ pla ces~ of~|sin.~ *|O pen~ the~ young~ for~ the~|
 A3 F3 | F>DD DEF | G3 E3 | E>CC CDE | F3 D3 | D>[K:bass]B,B, B,CD | C6 | G3- GAB | c6 | B3- BdB | %19
w: chil dren,~|Ten der ly~ ga ther~ them~|in,~ *|O from~ the~ high ways~ the~|hedg es,~|In~ from~ the~ pla to~ the~|||||
 G6 | E3- EFG | A6 | D3- DAG | E6 | G>EE EFG | A3 F3 | F>DD DEF | G3 E3 | E>CC CDE | F3 D3 | %30
w: |||||O pen~ the~ door~ for~ the~|chil dren,~|Ten der ly~ ga ther~ them~|in,~ *|In~ from~ the~ high ways~ the~|hedg es,~|
 D>B,B, B,CD | C6 |] %32
w: In~ from~ the~ pla ces~ ful~|fold.~|
V:2
 C,>C,C, C,C,B,, | A,,3 A,,3 | A,,>B,,B,, B,,B,,A,, | G,,6 | G,,>A,,A,, A,,A,,G,, | F,,3 F,,3 | %6
 F,,>G,,G,, G,,A,,B,, | C,3 D,3 | C,>C,C, C,C,B,, | A,,3 A,,3 | A,,>B,,B,, B,,B,,A,, | G,,6 | %12
 G,,>A,,A,, A,,A,,G,, | F,,3 F,,3 | F,,>G,,G,, G,,A,,B,, | C,>C,C, z E,F, | %16
 G,->[G,,G,-][G,,G,-] G,A,[G,,B,] | C->[F,,C-][F,,C-] [F,,C]3 | B,->[F,,B,-][F,,B,-] B,D[F,,B,] | %19
 G,->[G,,G,-][G,,G,-] [G,,G,]3 | E,->[C,E,-][C,E,-] E,F,[C,G,] | A,->[D,A,-][D,A,-] [D,A,]3 | %22
 D,>D,D, z A,[D,G,] | E,6 | C,>C,C, C,C,B,, | A,,3 A,,3 | A,,>B,,B,, B,,B,,A,, | G,,6 | %28
 G,,>A,,A,, A,,A,,G,, | F,,3 F,,3 | F,,>G,,G,, G,,A,,B,, | C,6 |] %32
V:3
 x6 | x6 | x6 | x6 | x6 | x6 | x6 | x6 | x6 | x6 | x6 | x6 | x6 | x6 | x6 | z3 C,3 | .G,,3 .G,,3 | %17
 .F,,3 z3 | .F,,3 .F,,3 | .G,,3 z3 | .C,3 .C,3 | .D,3 z3 | z3 .D,3 | C,>C,C, C,3 | x6 | x6 | x6 | %27
 x6 | x6 | x6 | x6 | x6 |] %32

